!!!COM: Palestrina, Giovanni Perluigi da
!!!OPR: Missa Ave Maria (1596)
!!!OMD: Sanctus
!!!OTL: First Section
**kern	**kern	**kern	**kern	**kern	**kern
*Ibass	*Itenor	*Itenor	*Icalto	*Icalto	*Icant
!Bassus	!Tenor 2	!Tenor 1	!Altus 2	!Altus 1	!Cantus
*clefF4	*clefGv2	*clefGv2	*clefG2	*clefG2	*clefG2
*k[b-]	*k[b-]	*k[b-]	*k[b-]	*k[b-]	*k[b-]
*F:ion	*F:ion	*F:ion	*F:ion	*F:ion	*F:ion
*M4/2	*M4/2	*M4/2	*M4/2	*M4/2	*M4/2
=1	=1	=1	=1	=1	=1
0r	0r	0r	1.B-	1r	[0b-
.	.	.	.	[1B-	.
.	.	.	2c	.	.
=2	=2	=2	=2	=2	=2
0r	0r	0r	2d	2B-]	1b-]
.	.	.	2e	2c	.
.	.	.	2f	2d	[1a
.	.	.	2c	2e	.
=3	=3	=3	=3	=3	=3
0r	0r	0r	2d	2f	1a]
.	.	.	2e	2c	.
.	.	.	2f	2d	1a
.	.	.	2c	2e	.
=4	=4	=4	=4	=4	=4
0r	0r	0r	2.d	2.f	1a
.	.	.	4c	4e	.
.	.	.	4B-	2d	1b-
.	.	.	4A	.	.
.	.	.	4G	4B-	.
.	.	.	4A	4c	.
=5	=5	=5	=5	=5	=5
0r	0r	0r	4B-	4d	1f
.	.	.	4c	4e	.
.	.	.	2.d	2.f	.
.	.	.	.	.	1a
.	.	.	4e	4e	.
.	.	.	[2f	4d	.
.	.	.	.	4c	.
=6	=6	=6	=6	=6	=6
0r	0r	1r	2f]	2B-	1g
.	.	.	2e	2c	.
.	.	[1B-	1f	1d	2.b-
.	.	.	.	.	4cc
=7	=7	=7	=7	=7	=7
0r	0r	2B-]	1r	1.f	0dd
.	.	2c	.	.	.
.	.	2d	[1f	.	.
.	.	2e	.	2g	.
=8	=8	=8	=8	=8	=8
1.F	0r	1.f	2f]	2a	0cc
.	.	.	2g	2b-	.
.	.	.	2a	[1cc	.
2G	.	4e	2b-	.	.
.	.	4d	.	.	.
=9	=9	=9	=9	=9	=9
2A	0r	2c	0cc	2cc]	1r
2B-	.	2d	.	4b-	.
.	.	.	.	4a	.
2c	.	2e	.	2g	2r
2A	.	[2f	.	2a	2cc
=10	=10	=10	=10	=10	=10
2B-	0r	2f]	2b-	1g	2dd
2c	.	2e	2g	.	2ee
1F	.	1f	2.a	4f	2cc
.	.	.	.	4g	.
.	.	.	.	4a	[2ff
.	.	.	4b-	4f	.
=11	=11	=11	=11	=11	=11
1r	1r	1c	1cc	2.g	2ff]
.	.	.	.	.	2ee
.	.	.	.	4a	.
[1BB-	[1B-	1d	2f	1b-	2dd
.	.	.	[2d	.	[2ff
=12	=12	=12	=12	=12	=12
2BB-]	1B-]	1r	2d]	1.f	2ff]
2C	.	.	2e	.	2ee
2D	[1A	[1F	[1f	.	1dd
2E	.	.	.	2g	.
=13	=13	=13	=13	=13	=13
1.F	1A_	2F]	0f]	2a	1cc
.	.	2G	.	2b-	.
.	1A_	2A	.	1cc	[1a
2G	.	2B-	.	.	.
=14	=14	=14	=14	=14	=14
1A	1A]	2c	1e	1a	2a]
.	.	2d	.	.	2b-
1AA	[1A	2e	[1a	2r	2cc
.	.	2f	.	[2a	[2dd
=15	=15	=15	=15	=15	=15
1r	1A]	1e	1a]	4a]	2dd]
.	.	.	.	4g	.
.	.	.	.	2e	2cc#
2r	1B-	1d	1r	2g	2dd
[2BB-	.	.	.	[2f	[2d
=16	=16	=16	=16	=16	=16
2BB-]	[0F	0f	0r	2f]	2d]
2C	.	.	.	2e	2e
2D	.	.	.	2d	2f
2E	.	.	.	4c	2g
.	.	.	.	4B-	.
=17	=17	=17	=17	=17	=17
1F	1F]	1f	1.c	1A	2a
.	.	.	.	.	2b-
1r	[1A	1e	.	[1a	2.cc
.	.	.	2d	.	.
.	.	.	.	.	4b-
=18	=18	=18	=18	=18	=18
0r	1A]	1c	2e	1a]	4a
.	.	.	.	.	4g
.	.	.	2f	.	1cc
.	1G	1d	[1g	2r	.
.	.	.	.	2d	2b
=19	=19	=19	=19	=19	=19
1C	1G	1c	1g]	2e-	1cc
.	.	.	.	2e-	.
[1BB-	[1B-	2.f	1r	2d	2.dd
.	.	.	.	2B-	.
.	.	4e	.	.	4ee
=20	=20	=20	=20	=20	=20
1BB-]	1B-]	1d	1.b-	1.f	0ff
[1F	[1c	2.c	.	.	.
.	.	.	2a	2f	.
.	.	4B-	.	.	.
=21	=21	=21	=21	=21	=21
1F]	0c]	2A	2f	2.a	2r
.	.	2F	2a	.	1ff
.	.	.	.	4b-	.
[1C	.	1G	2.g	1cc	.
.	.	.	.	.	2ee
.	.	.	4f	.	.
=22	=22	=22	=22	=22	=22
1C]	0r	2r	4e	1g	2cc
.	.	.	4d	.	.
.	.	1c	2c	.	2ee
1G	.	.	1d	2r	2dd
.	.	2B-	.	[2g	4g
.	.	.	.	.	4a
=23	=23	=23	=23	=23	=23
0r	0r	2G	2r	2g]	4b-
.	.	.	.	.	4cc
.	.	1B-	4d	2f	1dd
.	.	.	4e	.	.
.	.	.	4f	2d	.
.	.	.	4g	.	.
.	.	2A	[2a	[2f	4cc
.	.	.	.	.	4b-
=24	=24	=24	=24	=24	=24
0r	0r	2F	2a]	4f]	4a
.	.	.	.	4e	4b-
.	.	2A	2e	2c	1cc
.	.	1G	2.g	2d	.
.	.	.	.	[2g	2b
.	.	.	4f	.	.
=25	=25	=25	=25	=25	=25
2r	0r	1A	2e	2g]	1cc
1c	.	.	2c	2f#	.
.	.	2G	2.d	1g	1r
2B-	.	[2g	.	.	.
.	.	.	8c	.	.
.	.	.	8d	.	.
=26	=26	=26	=26	=26	=26
2G	0r	2g]	2e-	1r	2r
1B-	.	2f	4d	.	1dd
.	.	.	4c	.	.
.	.	2d	2B-	2r	.
2A	.	[2f	2c	[2a	2cc
=27	=27	=27	=27	=27	=27
2F	0r	4f]	1c	2a]	2a
.	.	4e	.	.	.
2A	.	2c	.	2e	1cc
1G	.	2d	1r	2g	.
.	.	[2e-	.	[2g	2b-
=28	=28	=28	=28	=28	=28
0r	0r	4e-]	0r	4g]	2g
.	.	4d	.	4f	.
.	.	2B-	.	2d	2b-
.	.	2c	.	2e	2.a
.	.	2d	.	[2f	.
.	.	.	.	.	8g
.	.	.	.	.	8f
=29	=29	=29	=29	=29	=29
0r	0r	2B-	2r	2f]	1g
.	.	2c	1cc	2e	.
.	.	2A	.	2f	[1f
.	.	2B-	2b-	2d	.
=30	=30	=30	=30	=30	=30
2r	0r	2F	2a	2c	0f]
1B-	.	4B-	2b-	1d	.
.	.	4c	.	.	.
.	.	4d	2f	.	.
.	.	4e	.	.	.
2A	.	[2f	[2a	4c	.
.	.	.	.	4B-	.
=31	=31	=31	=31	=31	=31
2F	0r	4f]	4a]	1A	2r
.	.	4e	4g	.	.
2A	.	2c	4e	.	1cc
.	.	.	4f	.	.
1G	.	1d	2.g	2r	.
.	.	.	.	[2B-	2b-
.	.	.	4f	.	.
=32	=32	=32	=32	=32	=32
1G	1r	1B-	4e-	2B-]	2g
.	.	.	8d	.	.
.	.	.	8c	.	.
.	.	.	2.d	2G	2b-
2.F	[1f	1c	.	2A	2a
.	.	.	4c	.	.
.	.	.	[2c	[2a	2cc
4E	.	.	.	.	.
=33	=33	=33	=33	=33	=33
1D	1f]	1F	2c]	2a]	1dd
.	.	.	2B	2d	.
[1C	[1e	2r	1c	2g	4ee
.	.	.	.	.	4dd
.	.	2c	.	2g	4ee
.	.	.	.	.	4ff
=34	=34	=34	=34	=34	=34
1C]	1e_	2c	2r	1g	4gg
.	.	.	.	.	4ff
.	.	2c	2c	.	4ee
.	.	.	.	.	4dd
1r	1e_	2.A	2c	2r	[1cc
.	.	.	[2c	[2a	.
.	.	4B-	.	.	.
=35	=35	=35	=35	=35	=35
1.C	1e]	0c	4c]	2a]	1cc]
.	.	.	4d	.	.
.	.	.	4e	2g	.
.	.	.	4f	.	.
.	[1e	.	2g	2e	2r
2C	.	.	4c	[2g	2cc
.	.	.	4d	.	.
=36	=36	=36	=36	=36	=36
1C	1e]	1c	4e	4g]	2cc
.	.	.	4f	4f	.
.	.	.	2g	4e	2cc
.	.	.	.	4d	.
1F	1f	2r	2a	4c	2.a
.	.	.	.	4B-	.
.	.	[2c	2f	2A	.
.	.	.	.	.	4b-
=37	=37	=37	=37	=37	=37
2E	[0c	4c]	2g	2G	1cc
.	.	4B-	.	.	.
2F	.	2A	2.f	1c	.
1C	.	1G	.	.	1cc
.	.	.	8e	.	.
.	.	.	8d	.	.
.	.	.	2e	2G	.
=38	=38	=38	=38	=38	=38
1F	1c]	1F	2f	2A	2a
.	.	.	1a	2.c	2ff
1r	[1e	1c	.	.	2ee
.	.	.	.	4d	.
.	.	.	2g	4e	2cc
.	.	.	.	4f	.
=39	=39	=39	=39	=39	=39
2r	1e]	1c	2e	1g	2.ee
1c	.	.	1g	.	.
.	.	.	.	.	4ff
.	1d	1G	.	2r	2gg
2B-	.	.	2d	[2g	4g
.	.	.	.	.	4a
=40	=40	=40	=40	=40	=40
2G	1d	0r	2r	2g]	4b-
.	.	.	.	.	4cc
1B-	.	.	2d	2f	1dd
.	[1f	.	2B-	2d	.
2A	.	.	2c	[2f	4cc
.	.	.	.	.	4b-
=41	=41	=41	=41	=41	=41
2F	1f]	0r	1c	2f]	2a
2A	.	.	.	2c	1cc
1G	[1g	.	2r	2d	.
.	.	.	2d	2d	2b
=42	=42	=42	=42	=42	=42
1C	0g]	2r	2e-	1c	2cc
.	.	1c	2c	.	1ee-
2r	.	.	[1d	1G	.
[2G	.	2B-	.	.	2dd
=43	=43	=43	=43	=43	=43
2G]	[0g	2G	1d]	2r	2b-
2G	.	1B-	.	2.g	2dd
2E-	.	.	2G	.	2ee-
.	.	.	.	4g	.
[2C	.	2c	[2g	2e-	[2ee-
=44	=44	=44	=44	=44	=44
2C]	1g_	0G	4g]	1c	4ee-]
.	.	.	4f	.	4dd
2C	.	.	2e-	.	1cc
1G	1g_	.	[1d	2d	.
.	.	.	.	2G	4b
.	.	.	.	.	4a
=45	=45	=45	=45	=45	=45
1G	0g]	1G	1d]	1d	1b
1C	.	1G	1c	1e	1cc
*-	*-	*-	*-	*-	*-
!!!CDT: 1525/^1526/-1594/2/2
!!!OCY: Italia
!!!AGN: Mass (Tenor)
!!!AST: renaissance, vocal
!!!ASW: Motet 1563 (Palestrina)
!!!PWK: Masses, Book 6
!!!RNB: Cadence finals: C
!!!YOR: Le Opere Complete, v. 21, p. 142
!!!YOO: Rome, Italy: Fratelli Scalera
!!!END: 1992//
!!!EED: John Miller
!!!YEC: Copyright 2000, John Miller
!!!YEN: United States of America
!!!YEM: Rights to all derivative electronic formats reserved.
!!!YEM: Refer to licensing agreement for further details.
!!!YEM: This file must be accompanied by the licensing agreement.
!!!YEM: A copy of the licensing agreement may be found at http://www.music-cog.ohio-state.edu/HumdrumDatabases/Palestrina/license.txt
!!!EMD: converted to Humdrum by Bret Aarden
